X: 10112
T: TOM & JAN'S HORNPIPE
C: Bob McQuillen 20 Oct 93
B: Bob's Note Book 10 #112
%R: hornpipe, reel
Z: 2020 John Chambers <jc:trillian.mit.edu>
M: C
L: 1/8
K: G	% and Em
de \
| gedc BGAG | D2GB AGBd | gedc BGAG | FGAB A2Bd |\
| gedB c2dc | BcdB G2AG | FAGB cedc | B2G2 G2  :|
|: GA \
| BGFD EFGA | B2e2 e2GA | BGFD EGAG | F2d2 d2Bd |\
| edBG EFGA | Bdeg f2ga | bgeg dBAB | G2E2 E2  :|
%%begintext align
%% Jan Caulfield and Tom Paul
%% live in Juneau, AK, and I had the pleasure of meeting them last
%% spring when I was lucky enough to be up there. Tom called a great
%% dance, and Rex Blazer was the fiddler, and you-know-who played
%% piano, and it was a real fun time. They're really enthusiastic about
%% contra dancing in Juneau - lots of people dance and lots of musicians
%% are playing for them - it's a wonderful scene - Thanks for
%% getting me up there and being so nice to me - I had a wonderful time --
%%endtext

%%sep 1 1 500

%%sep 1 1 500

